icons/1_Primary/Glassdoor.svg

<svg width="1024" height="1024" fill="none" xmlns="http://www.w3.org/2000/svg"><g clip-path="url(#a)"><path d="M512 1024c282.77 0 512-229.23 512-512S794.77 0 512 0 0 229.23 0 512s229.23 512 512 512Z" fill="#98DC9A"/><path d="M621.7 694.9H329.1c0 40.4 32.7 73.1 73.1 73.1h219.4c40.4 0 73.1-32.7 73.1-73.1V394.5c0-1.5-1.2-2.7-2.7-2.7h-67.8c-1.5 0-2.7 1.2-2.7 2.7v300.4h.2Zm0-438.9c40.4 0 73.1 32.7 73.1 73.1H402.3v300.4c0 1.5-1.2 2.7-2.7 2.7h-67.8c-1.5 0-2.7-1.2-2.7-2.7V329.1c0-40.4 32.7-73.1 73.1-73.1h219.5Z" fill="#fff"/></g><defs><clipPath id="a"><path fill="#fff" d="M0 0h1024v1024H0z"/></clipPath></defs></svg>

<svg width="1024" height="1024" viewBox="0 0 1024 1024" fill="none" xmlns="http://www.w3.org/2000/svg">
<g clip-path="url(#clip0_2_2289)">
<path d="M512 1024C794.77 1024 1024 794.77 1024 512C1024 229.23 794.77 0 512 0C229.23 0 0 229.23 0 512C0 794.77 229.23 1024 512 1024Z" fill="#98DC9A"/>
<path d="M621.7 694.9H329.1C329.1 735.3 361.8 768 402.2 768H621.6C662 768 694.7 735.3 694.7 694.9V394.5C694.7 393 693.5 391.8 692 391.8H624.2C622.7 391.8 621.5 393 621.5 394.5V694.9H621.7ZM621.7 256C662.1 256 694.8 288.7 694.8 329.1H402.3V629.5C402.3 631 401.1 632.2 399.6 632.2H331.8C330.3 632.2 329.1 631 329.1 629.5V329.1C329.1 288.7 361.8 256 402.2 256H621.7Z" fill="white"/>
</g>
<defs>
<clipPath id="clip0_2_2289">
<rect width="1024" height="1024" fill="white"/>
</clipPath>
</defs>
</svg>
